**kern	**silbe
*ICvox	*
*C:	*
*M4/4	*
*clefG2	*
r;	.
=1	=1
1r	.
=2	=2
1r	.
=3	=3
1r	.
=4	=4
1r	.
=5	=5
1r	.
=6	=6
2r	.
16e	You
8.d	_
8d	with
8c	the
=7	=7
2c	sad
4G	heart,
4r	.
=8	=8
8e	don't
8f	be
8g	dis-
[8g	-cour-
8g]	_
8f	-aged
8e	Oh
8d	I
=9	=9
8d	re-
8e	-a-
4.c	-lize
8G	it's
4r	.
=10	=10
8e-	hard
8d	to
8d	take
8d	cour-
8c	-age
4r	.
16c	In
16c	a
=11	=11
4c	world
8r	.
16c	full
16c	of
8d	peo-
16c	-ple
8.d	_
8r	.
=12	=12
8c	you
8e	can
8f	lose
8g	sight
8g	of
8a	it
8c	all
16c	And
16c	the
=13	=13
8d	dark-
8d	-ness
8d	so
8d	in-
8d	-side
8c	you,
8c	make
8c	you
=14	=14
8c	feel
[8c	so
8c]	_
8c	small
8r	.
16c	But
16c	I
8e	see
8g	your
=15	=15
4.a	true
[8a	co-
8a]	_
[8g	-lors
8g]	_
[8e	shi-
=16	=16
8e]	_
8d	-ning
[8e	through
8e]	_
8r	.
8c	I
8e	see
8g	your
=17	=17
4.a	true
8a	co-
8g	_
8g	-lors,
8r	.
8c	and
=18	=18
8a	that's
8a	why
8a	I
[8a	lo-
8a]	_
8g	-ve
8g	you
8g	So
=19	=19
8a	don't
8a	be
8g	a-
[8g	-fraid
4g]	_
8r	.
8c	to
=20	=20
8d	let
8d	them
8c	_
[8d	show
8d]	_
8c	_
4c	your
=21	=21
4.c	true
[8c	co-
8c]	_
8c	-lors
4r	.
=22	=22
4.c	True
[8c	co-
16c]	_
16d	_
8e	-lors
8r	.
8A	are
=23	=23
4..e	beau-
16d	-ti-
4d	-ful
8c	like
8c	a
=24	=24
4..c	rain-
16B	_
4A	-bow
4r	.
=25	=25
1r	.
=26	=26
1r	.
=27	=27
2r	.
16e	Show
[8.d	_
8d]	_
16c	me
16c	a
=28	=28
4.c	smile
8G	then,
2r	.
=29	=29
8e	don't
8f	be
8g	un-
[8g	-ha-
8g]	_
8f	-ppy
8e	Can't
16d	re-
[16d	-mem-
=30	=30
8d]	_
8e	-ber
4.c	when
8A	I
4r	.
=31	=31
8e-	last
8d	saw
8d	you
8e-	laugh-
8c	-ing
4r	.
8c	If
=32	=32
8c	this
8c	world
8c	makes
8c	you
8d	cra-
8c	-zy
8c	and
8c	you've
=33	=33
8e	ta-
8f	-ken
8g	all
8g	you
8a	can
8c	bear
8r	.
8c	You
=34	=34
8e-	call
8d	me
8d	up
4r	.
8G	be-
8G	-cause
8G	you
=35	=35
8c	know
8c	I'll
8c	be
8c	there
8r	.
16c	And
16c	I
8e	see
8g	your
=36	=36
4.a	true
[8a	co-
8a]	_
[8g	-lors
8g]	_
[8a	shi-
=37	=37
8a]	_
8g	-ning
[8a	through
8a]	_
8r	.
8c	I
8e	see
8g	your
=38	=38
4.a	true
8a	co-
8g	_
8g	-lors,
8r	.
8c	and
=39	=39
8a	that's
8a	why
8a	I
[8a	lo-
8a]	_
8g	-ve
8g	you
8g	So
=40	=40
8cc	don't
8cc	be
8a	a-
[8cc	-fraid
4cc]	_
8r	.
8e	to
=41	=41
[8d	let
8d]	_
8c	it
[8d	show,
8d]	_
8c	_
4c	your
=42	=42
4.c	true
[8c	co-
8c]	_
8A	-lors
4r	.
=43	=43
4.c	True
[8c	co-
16c]	_
16d	_
8e	-lors
8r	.
8A	are
=44	=44
4..e	beau-
16d	-ti-
4d	-ful
8c	like
8c	a
=45	=45
4.c	rain-
8B	_
4A	-bow
4r	.
=46	=46
1r	.
=47	=47
1r	.
=48	=48
2r	.
[2e	Ooh
=49	=49
2e_	_
4.e]	_
8r	.
=50	=50
2c	Ah
2r	.
=51	=51
8r	.
8~c	Can't
16~c	re-
8~c	-mem-
16~c	-ber
4r	.
16~c	when
8.~c	I
=52	=52
8~c	last
8~c	saw
8~c	you
8~c	laugh
2r	.
=53	=53
8c	If
8c	this
8c	world
8c	makes
8d	you
8d	cra-
8c	-zy
8c	you've
=54	=54
8e	ta-
8f	-ken
8g	all
8g	you
8a	can
8c	bear
8r	.
8c	You
=55	=55
8e-	call
8d	me
8d	up
4r	.
8G	be-
8G	-cause
8G	you
=56	=56
8c	know
8c	I'll
8c	be
8G	there
8r	.
16c	And
16c	I
8e	see
8g	your
=57	=57
4.a	true
[8a	co-
8a]	_
[8g	-lors
8g]	_
[8e	shi-
=58	=58
8e]	_
8d	-ning
[8d	through
8d]	_
8r	.
8c	I
8e	see
8g	your
=59	=59
4.a	true
8a	co-
8g	_
8g	-lors,
8r	.
8c	and
=60	=60
8a	that's
8a	why
8a	I
[8a	lo-
8a]	_
8g	-ve
8g	you
8g	So
=61	=61
8cc	don't
8cc	be
8a	a-
[8cc	-fraid
4cc]	_
8c	to
8r	.
=62	=62
8d	let
[8d	it
8d]	_
[8d	show
8d]	_
8c	_
8r	.
8c	your
=63	=63
4.c	true
[8c	co-
8c]	_
8c	-lors
4r	.
=64	=64
4.c	True
[8c	co-
8c]	_
8c	-lors
4r	.
=65	=65
4.c	true
[8c	co-
8c]	_
8e	-lors
8g	are
[8a	shi-
=66	=66
8a]	_
8g	-ning
[8a	through
8a]	_
8r	.
8c	I
8e	see
8g	your
=67	=67
4.a	true
8a	co-
8g	_
8g	-lors
8r	.
8g	and
=68	=68
8a	that's
8a	why
8a	I
16a	lo-
16b-	_
8b-	_
8a	ve
8g	you
8g	So
=69	=69
8cc	don't
8cc	be
8a	a-
[8cc	-fraid
4cc]	_
8r	.
8e	to
=70	=70
8d	let
[8d	them
8d]	_
[8d	show
8d]	_
8c	_
8r	.
8c	your
=71	=71
4.c	true
[8c	co-
8c]	_
8c	-lors
4r	.
=72	=72
4.c	true
[8c	co-
16c]	_
16d	_
8e	-lors
8r	.
8A	are
=73	=73
4..e	beau-
16d	-ti-
4d;	-ful
8c	like
8c	a
=74	=74
4..c	rain-
16B	_
8A	_
[4.A	-bow
=75	=75
1A]	_
=76	=76
*M3/8	*
4.r	.
=77	=77
*M4/4	*
1r	.
=78	=78
1r	.
=79	=79
1r	.
=80	=80
1r	.
r;	.
r;	.
*-	*-
!!!ENC: Nathaniel Condit-Schultz
!!!MBID: 531c800f-ae39-4942-aeeb-05a44f1dcdcf
